icon/ir/edit.svg

<svg stroke-width="1.5" viewBox="0 0 24 24" fill="none" xmlns="http://www.w3.org/2000/svg" height="1em" width="1em">
  <path d="M3 21L12 21H21" stroke="currentColor" stroke-linecap="round" stroke-linejoin="round"/>
  <path d="M12.2218 5.82839L15.0503 2.99996L20 7.94971L17.1716 10.7781M12.2218 5.82839L6.61522 11.435C6.42769 11.6225 6.32233 11.8769 6.32233 12.1421L6.32233 16.6776L10.8579 16.6776C11.1231 16.6776 11.3774 16.5723 11.565 16.3847L17.1716 10.7781M12.2218 5.82839L17.1716 10.7781" stroke="currentColor" stroke-linecap="round" stroke-linejoin="round"/>
</svg>

<svg width="24" height="24" stroke-width="1.5" fill="none" xmlns="http://www.w3.org/2000/svg"><path d="M3 21h18M12.222 5.828 15.05 3 20 7.95l-2.828 2.828m-4.95-4.95-5.607 5.607a1 1 0 0 0-.293.707v4.536h4.536a1 1 0 0 0 .707-.293l5.607-5.607m-4.95-4.95 4.95 4.95" stroke="currentColor" stroke-linecap="round" stroke-linejoin="round"/></svg>
